apps/site/public/icons/companies/cockroachdb.svg

<svg width="48" height="48" viewBox="0 0 48 48" fill="none" xmlns="http://www.w3.org/2000/svg">
<g clip-path="url(#clip0_4437_8773)">
<path d="M37.0084 31.8117C38.4079 27.2787 38.1676 22.5175 36.3165 18.0911C34.4653 13.6645 31.0809 9.75768 26.5627 6.83226C30.6884 4.92003 35.3662 3.91736 40.1255 3.92514C41.9298 3.92437 43.7298 4.06699 45.4996 4.35097L46.2441 1.93934C44.2305 1.60735 42.1807 1.44005 40.1255 1.43999C34.3571 1.43102 28.7069 2.75565 23.8445 5.25677C18.9817 2.75604 13.3315 1.43145 7.56335 1.43999C5.50655 1.44006 3.45503 1.60735 1.43994 1.93934L2.18435 4.35097C3.95561 4.06678 5.75733 3.92416 7.56335 3.92514C12.3235 3.91714 17.0024 4.91838 21.1308 6.8284C17.4387 9.21871 14.4918 12.2723 12.5259 15.745C10.5601 19.2176 9.62975 23.0129 9.80945 26.8272C9.98915 30.6414 11.2738 34.3689 13.5608 37.7113C15.8476 41.0537 19.0733 43.9184 22.9799 46.0763L23.8539 46.5601L24.7232 46.0763C30.8447 42.6907 35.2179 37.6168 37.018 31.8117H37.0084ZM22.3028 42.5265C18.2798 39.7261 15.3603 36.0389 13.9037 31.9185C12.4472 27.7983 12.517 23.4244 14.1046 19.3356C15.6605 21.4193 17.5914 23.3057 19.8342 24.933C20.6123 25.4983 21.2344 26.1892 21.6595 26.9607C22.0848 27.7323 22.3041 28.5673 22.3028 29.4118V42.5265ZM23.8445 24.3715C21.7776 23.136 19.9375 21.6712 18.3789 20.0207C17.381 18.9635 16.8407 17.6716 16.8407 16.3434C16.8407 15.0148 17.381 13.7231 18.3789 12.6658C19.9361 11.0017 21.7797 9.52491 23.8539 8.28C25.9513 9.54163 27.8128 11.0395 29.3819 12.7277C30.3471 13.7674 30.8688 15.0312 30.8688 16.3297C30.8688 17.6283 30.3471 18.892 29.3819 19.9316C27.8067 21.6161 25.9423 23.111 23.8445 24.3715ZM25.3813 42.5265V29.4118C25.3805 28.5672 25.6005 27.7317 26.0266 26.96C26.4527 26.1885 27.0755 25.4977 27.8547 24.933C30.0969 23.3066 32.0263 21.42 33.5793 19.3356C34.4073 21.4652 34.8267 23.6845 34.8232 25.9162C34.8191 29.0686 33.9737 32.1834 32.3446 35.0495C30.7154 37.9155 28.3407 40.4655 25.3813 42.5265Z" fill="url(#paint0_linear_4437_8773)"/>
</g>
<defs>
<linearGradient id="paint0_linear_4437_8773" x1="1.43994" y1="14.224" x2="46.2441" y2="14.224" gradientUnits="userSpaceOnUse">
<stop stop-color="#0037A5"/>
<stop offset="0.503789" stop-color="#6933FF"/>
<stop offset="1" stop-color="#00FCED"/>
</linearGradient>
<clipPath id="clip0_4437_8773">
<rect width="45.1201" height="45.1201" fill="white" transform="translate(1.43994 1.43994)"/>
</clipPath>
</defs>
</svg>

<svg xmlns="http://www.w3.org/2000/svg" width="48" height="48" fill="none" viewBox="0 0 48 48"><g clip-path="url(#a)"><path fill="url(#b)" d="M37.008 31.812c1.4-4.533 1.16-9.295-.692-13.72-1.85-4.427-5.235-8.334-9.753-11.26 4.125-1.912 8.803-2.915 13.563-2.907 1.804 0 3.604.142 5.374.426l.744-2.412a38 38 0 0 0-6.118-.499c-5.769-.009-11.42 1.316-16.281 3.817C18.982 2.756 13.332 1.43 7.563 1.44a37.6 37.6 0 0 0-6.123.5l.744 2.411a34 34 0 0 1 5.38-.426c4.76-.008 9.438.993 13.567 2.903-3.692 2.39-6.64 5.444-8.605 8.917S9.63 23.013 9.809 26.827c.18 3.814 1.465 7.542 3.752 10.884s5.512 6.207 9.419 8.365l.874.484.87-.484c6.12-3.385 10.494-8.46 12.294-14.264zM22.303 42.526c-4.023-2.8-6.943-6.487-8.4-10.608-1.456-4.12-1.386-8.494.202-12.582 1.556 2.083 3.486 3.97 5.73 5.597.777.565 1.4 1.256 1.825 2.028.425.771.644 1.606.643 2.45zm1.541-18.155c-2.066-1.235-3.907-2.7-5.465-4.35-.998-1.058-1.538-2.35-1.538-3.678s.54-2.62 1.538-3.677c1.557-1.664 3.4-3.141 5.475-4.386 2.097 1.262 3.959 2.76 5.528 4.448.965 1.04 1.487 2.303 1.487 3.602s-.522 2.562-1.487 3.602c-1.575 1.684-3.44 3.179-5.538 4.44m1.537 18.156V29.411c0-.845.22-1.68.646-2.452.426-.771 1.049-1.462 1.828-2.027 2.242-1.626 4.171-3.513 5.724-5.597a18 18 0 0 1 1.244 6.58c-.004 3.153-.85 6.267-2.478 9.134-1.63 2.866-4.004 5.416-6.964 7.477"/></g><defs><linearGradient id="b" x1="1.44" x2="46.244" y1="14.224" y2="14.224" gradientUnits="userSpaceOnUse"><stop stop-color="#0037a5"/><stop offset=".504" stop-color="#6933ff"/><stop offset="1" stop-color="#00fced"/></linearGradient><clipPath id="a"><path fill="#fff" d="M1.44 1.44h45.12v45.12H1.44z"/></clipPath></defs></svg>
